src/assets/img/networks/ethereum.svg

<svg width="48" height="48" viewBox="0 0 48 48" fill="none" xmlns="http://www.w3.org/2000/svg">
<circle cx="24" cy="24" r="24" fill="white"/>
<path d="M23.9999 5.99991L34.9199 24.1199L23.9999 19.4399V5.99991Z" fill="#B8FBF6"/>
<path d="M13.0803 24.1199L23.9999 5.99991V19.4399L13.0803 24.1199Z" fill="#EECBC0"/>
<path d="M24.0003 30.8402L13.0803 24.1199L23.9999 19.4399L24.0003 30.8402Z" fill="#87A9F0"/>
<path d="M34.9199 24.1199L23.9999 19.4399L24.0003 30.8402L34.9199 24.1199Z" fill="#C9B3F5"/>
<path d="M23.9999 33.1201L34.9199 26.6401L23.9999 42.0001V33.1201Z" fill="#C9B3F5"/>
<path d="M23.9999 33.1201L13.0803 26.6401L18.5403 34.3201L23.9999 42.0001V33.1201Z" fill="#EECBC0"/>
<path d="M23.9999 5.99991L34.9199 24.1199M23.9999 5.99991V19.4399M23.9999 5.99991L13.0803 24.1199M34.9199 24.1199L23.9999 19.4399M34.9199 24.1199L24.0003 30.8402M23.9999 19.4399L13.0803 24.1199M23.9999 19.4399L24.0003 30.8402M13.0803 24.1199L24.0003 30.8402M23.9999 33.1201L34.9199 26.6401L23.9999 42.0001M23.9999 33.1201V42.0001M23.9999 33.1201L13.0803 26.6401L18.5403 34.3201L23.9999 42.0001" stroke="#125AF2"/>
</svg>

<?xml version="1.0" encoding="UTF-8"?>
<svg fill="none" viewBox="0 0 48 48" xmlns="http://www.w3.org/2000/svg">
<circle cx="24" cy="24" r="24" fill="#fff"/>
<path d="m24 5.9999 10.92 18.12-10.92-4.68v-13.44z" fill="#B8FBF6"/>
<path d="m13.08 24.12 10.92-18.12v13.44l-10.92 4.68z" fill="#EECBC0"/>
<path d="m24 30.84-10.92-6.7203 10.92-4.68 4e-4 11.4z" fill="#87A9F0"/>
<path d="m34.92 24.12-10.92-4.68 4e-4 11.4 10.92-6.7203z" fill="#C9B3F5"/>
<path d="m24 33.12 10.92-6.48-10.92 15.36v-8.88z" fill="#C9B3F5"/>
<path d="m24 33.12-10.92-6.48 5.46 7.68 5.4596 7.68v-8.88z" fill="#EECBC0"/>
<path d="m24 5.9999 10.92 18.12m-10.92-18.12v13.44m0-13.44-10.92 18.12m21.84 0-10.92-4.68m10.92 4.68-10.92 6.7203m-4e-4 -11.4-10.92 4.68m10.92-4.68 4e-4 11.4m-10.92-6.7203 10.92 6.7203m-4e-4 2.2799 10.92-6.48-10.92 15.36m0-8.88v8.88m0-8.88-10.92-6.48 5.46 7.68 5.4596 7.68" stroke="#125AF2"/>
</svg>
